communes/5176.svg

<?xml version="1.0" encoding="UTF-8" standalone="no"?>
<svg
   xmlns:dc="http://purl.org/dc/elements/1.1/"
   xmlns:cc="http://creativecommons.org/ns#"
   xmlns:rdf="http://www.w3.org/1999/02/22-rdf-syntax-ns#"
   xmlns:svg="http://www.w3.org/2000/svg"
   xmlns="http://www.w3.org/2000/svg"
   xmlns:xlink="http://www.w3.org/1999/xlink"
   xmlns:sodipodi="http://sodipodi.sourceforge.net/DTD/sodipodi-0.dtd"
   xmlns:inkscape="http://www.inkscape.org/namespaces/inkscape"
   height="763"
   width="603"
   version="1.0"
   id="svg20"
   sodipodi:version="0.32"
   inkscape:version="0.46"
   sodipodi:docname="Comano-coat_of_arms.svg"
   sodipodi:docbase="C:\Documents and Settings\Steve\Bureau\Blason Villages Suisse pour Wikipédia (par Delta-9)"
   inkscape:output_extension="org.inkscape.output.svg.inkscape">
  <metadata
     id="metadata31">
    <rdf:RDF>
      <cc:Work
         rdf:about="">
        <dc:format>image/svg+xml</dc:format>
        <dc:type
           rdf:resource="http://purl.org/dc/dcmitype/StillImage" />
        <dc:date>07-AUG-2006</dc:date>
        <dc:creator>
          <cc:Agent>
            <dc:title>Jérôme BLUM (wagner51)</dc:title>
          </cc:Agent>
        </dc:creator>
        <cc:license
           rdf:resource="http://creativecommons.org/licenses/GPL/2.0/" />
        <dc:coverage />
        <dc:description>Gabarit pour le Projet:Blasons de WIkipédia</dc:description>
        <dc:subject>
          <rdf:Bag>
            <rdf:li>blason suisse modèle gabarit projet blasons</rdf:li>
          </rdf:Bag>
        </dc:subject>
        <dc:language>fr</dc:language>
        <dc:title>Gabrit d'un blason suisse</dc:title>
      </cc:Work>
      <cc:License
         rdf:about="http://creativecommons.org/licenses/GPL/2.0/">
        <cc:permits
           rdf:resource="http://web.resource.org/cc/Reproduction" />
        <cc:permits
           rdf:resource="http://web.resource.org/cc/Distribution" />
        <cc:requires
           rdf:resource="http://web.resource.org/cc/Notice" />
        <cc:permits
           rdf:resource="http://web.resource.org/cc/DerivativeWorks" />
        <cc:requires
           rdf:resource="http://web.resource.org/cc/ShareAlike" />
        <cc:requires
           rdf:resource="http://web.resource.org/cc/SourceCode" />
      </cc:License>
    </rdf:RDF>
  </metadata>
  <defs
     id="defs29"><inkscape:perspective
   sodipodi:type="inkscape:persp3d"
   inkscape:vp_x="0 : 381.5 : 1"
   inkscape:vp_y="0 : 1000 : 0"
   inkscape:vp_z="603 : 381.5 : 1"
   inkscape:persp3d-origin="301.5 : 254.33333 : 1"
   id="perspective28" />
<linearGradient
   id="linearGradient2893">
  <stop
     style="stop-color:#ffffff;stop-opacity:0.3137255;"
     offset="0"
     id="stop2895" />
  <stop
     id="stop2897"
     offset="0.19"
     style="stop-color:#ffffff;stop-opacity:0.25098041;" />
  <stop
     style="stop-color:#6b6b6b;stop-opacity:0.1254902;"
     offset="0.60000002"
     id="stop2901" />
  <stop
     style="stop-color:#000000;stop-opacity:0.1254902;"
     offset="1"
     id="stop2899" />
</linearGradient>
<linearGradient
   id="linearGradient2955">
  <stop
     style="stop-color:white;stop-opacity:0;"
     offset="0"
     id="stop2965" />
  <stop
     style="stop-color:black;stop-opacity:0.64583331;"
     offset="1"
     id="stop2959" />
</linearGradient>
<radialGradient
   inkscape:collect="always"
   xlink:href="#linearGradient2893"
   id="radialGradient3236"
   gradientUnits="userSpaceOnUse"
   gradientTransform="matrix(1.215027,1.531577e-24,1.464684e-23,1.266667,-839.1924,-490.4894)"
   cx="858.04236"
   cy="579.93323"
   fx="858.04236"
   fy="579.93323"
   r="300" />
<inkscape:perspective
   id="perspective2517"
   inkscape:persp3d-origin="306 : 264 : 1"
   inkscape:vp_z="612 : 396 : 1"
   inkscape:vp_y="0 : 1000 : 0"
   inkscape:vp_x="0 : 396 : 1"
   sodipodi:type="inkscape:persp3d" />

	
	

	
	

		
		
	
			
			
			
		
				
				
				
				
			
				
				
				
				
			
				
				
				
				
			</defs>
  <sodipodi:namedview
     inkscape:window-height="691"
     inkscape:window-width="939"
     inkscape:pageshadow="2"
     inkscape:pageopacity="0.0"
     guidetolerance="10.0"
     gridtolerance="10.0"
     objecttolerance="10.0"
     borderopacity="1.0"
     bordercolor="#666666"
     pagecolor="#ffffff"
     id="base"
     inkscape:zoom="0.394734"
     inkscape:cx="256.87091"
     inkscape:cy="332.16066"
     inkscape:window-x="1328"
     inkscape:window-y="123"
     inkscape:current-layer="layer2"
     showgrid="false"
     showguides="true"
     inkscape:guide-bbox="true">
    <sodipodi:guide
       orientation="horizontal"
       position="761.5"
       id="guide1885" />
    <sodipodi:guide
       orientation="vertical"
       position="1.5"
       id="guide1887" />
    <sodipodi:guide
       orientation="horizontal"
       position="1.5"
       id="guide1889" />
    <sodipodi:guide
       orientation="vertical"
       position="601.5"
       id="guide1891" />
    <sodipodi:guide
       orientation="vertical"
       position="301.50081"
       id="guide1893" />
  </sodipodi:namedview>
  <desc
     id="desc22">Coat of Arms of Canton of Freiburg (Fribourg)</desc>
  <g
     inkscape:groupmode="layer"
     id="layer1"
     inkscape:label="Fond écu"
     style="opacity:1;display:inline"
     sodipodi:insensitive="true">
    <path
       id="path1899"
       d="M 1.5,1.49998 L 1.5,460.3679 C 1.5,626.6785 135.81456,761.5 301.49999,761.5 C 467.18543,761.5 601.5,626.6785 601.5,460.3679 L 601.5,1.49998 L 1.5,1.49998 z"
       style="fill:#e20909;fill-opacity:1" />
  </g>
  <g
     inkscape:groupmode="layer"
     id="layer2"
     inkscape:label="Meubles"
     style="opacity:1;display:inline"
     sodipodi:insensitive="true">
    <path
       id="path2483"
       d="M 1.5,460.36799 C 1.5,626.67899 135.814,761.5 301.5,761.5 C 305.3,761.5 309.078,761.40499 312.845,761.26499 L 1.5,449.92 L 1.5,460.36799 z M 456.695,367 L 322.165,367 L 563.067,607.89999 C 580.124,577.49599 592.072,543.825 597.743,508.047 L 456.695,367 z M 53.108,367 L 422.212,736.105 C 452.226,722.84699 479.67,704.812 503.572,682.93499 L 187.637,367 L 53.108,367 z"
       style="fill:#fcef3c" />
    <path
       style="fill:#ffffff;stroke:#000000;stroke-width:3;stroke-linecap:round;stroke-linejoin:round"
       d="M 312.845,761.26499 L 1.5,449.92 M 322.165,367 L 563.067,607.89999 M 597.743,508.048 L 456.695,367 M 503.573,682.936 L 187.637,367 M 53.108,367 L 422.212,736.105"
       id="path2489" />
    <g
       id="g2634">
      <path
         d="M 119.898,279.77899 C 138.39,284.418 143.503,263.54 143.503,263.54 C 117.537,274.21499 118.718,239.87299 123.045,221.776 C 127.374,203.67599 145.817,187.29699 156.092,200.894 C 166.366,214.49 155.303,229.66599 155.303,229.66599 C 155.303,229.66599 193.465,218.99299 193.465,182.79699 C 193.465,146.602 160.734,133.899 137.21,154.955 C 125.799,165.15999 110.848,184.185 110.848,234.305 C 110.848,250.08299 111.636,276.99299 119.898,279.77899 z"
         id="path2001_1_"
         style="fill:#fcef3c;stroke:#000000;stroke-width:3;stroke-linecap:round;stroke-linejoin:round" />
      <path
         d="M 90.838,279.77899 C 72.346,284.418 67.234,263.54 67.234,263.54 C 93.198,274.21499 92.018,239.87299 87.693,221.776 C 83.364,203.67599 64.919,187.29699 54.644,200.894 C 44.371,214.49 55.431,229.66599 55.431,229.66599 C 55.431,229.66599 17.271,218.99299 17.271,182.79699 C 17.271,146.602 50,133.899 73.528,154.955 C 84.936,165.15999 99.887,184.185 99.887,234.305 C 99.889,250.08299 99.102,276.99299 90.838,279.77899 z"
         id="path2003_1_"
         style="fill:#fcef3c;stroke:#000000;stroke-width:3;stroke-linecap:round;stroke-linejoin:round" />
      <path
         d="M 82.987,137.685 C 82.987,110.935 99.125,97.482003 105.368,64.339 C 111.611,97.482003 127.748,110.933 127.748,137.685 C 127.748,177.90899 111.019,188.21299 111.019,232.723 C 111.019,266.69799 119.134,266.21899 119.134,279.14299 C 119.134,293.01999 110.207,292.54 105.367,311.75799 C 100.526,292.54 91.601,293.016 91.601,279.14299 C 91.601,266.21899 99.715,266.69499 99.715,232.723 C 99.718,188.216 82.987,177.90799 82.987,137.685 z"
         id="path2005_1_"
         style="fill:#fcef3c;stroke:#000000;stroke-width:3;stroke-linecap:round;stroke-linejoin:round" />
      <path
         d="M 132.092,232.71899 C 132.092,228.72499 129.348,225.488 125.96,225.488 L 84.774,225.488 C 81.389,225.488 78.643,228.726 78.643,232.71899 L 78.643,232.71899 C 78.643,236.71299 81.389,239.95099 84.774,239.95099 L 125.96,239.95099 C 129.348,239.94999 132.092,236.71199 132.092,232.71899 L 132.092,232.71899 z"
         id="path2007_1_"
         style="fill:#fcef3c;stroke:#000000;stroke-width:3;stroke-linecap:round;stroke-linejoin:round" />
      <path
         d="M 316.03,279.77899 C 334.522,284.418 339.635,263.54 339.635,263.54 C 313.669,274.21499 314.85,239.87299 319.177,221.776 C 323.505,203.67599 341.949,187.29699 352.224,200.894 C 362.498,214.49 351.435,229.66599 351.435,229.66599 C 351.435,229.66599 389.597,218.99299 389.597,182.79699 C 389.597,146.602 356.866,133.899 333.341,154.955 C 321.931,165.15999 306.979,184.185 306.979,234.305 C 306.979,250.08299 307.769,276.99299 316.03,279.77899 z"
         id="path2001_2_"
         style="fill:#fcef3c;stroke:#000000;stroke-width:3;stroke-linecap:round;stroke-linejoin:round" />
      <path
         d="M 286.97,279.77899 C 268.478,284.418 263.366,263.54 263.366,263.54 C 289.33,274.21499 288.15,239.87299 283.824,221.776 C 279.495,203.67599 261.05,187.29699 250.776,200.894 C 240.503,214.49 251.563,229.66599 251.563,229.66599 C 251.563,229.66599 213.403,218.99299 213.403,182.79699 C 213.403,146.602 246.131,133.899 269.66,154.955 C 281.068,165.15999 296.019,184.185 296.019,234.305 C 296.021,250.08299 295.234,276.99299 286.97,279.77899 z"
         id="path2003_2_"
         style="fill:#fcef3c;stroke:#000000;stroke-width:3;stroke-linecap:round;stroke-linejoin:round" />
      <path
         d="M 279.119,137.685 C 279.119,110.935 295.257,97.482003 301.5,64.339 C 307.743,97.482003 323.88,110.933 323.88,137.685 C 323.88,177.90899 307.151,188.21299 307.151,232.723 C 307.151,266.69799 315.266,266.21899 315.266,279.14299 C 315.266,293.01999 306.339,292.54 301.499,311.75799 C 296.658,292.54 287.733,293.016 287.733,279.14299 C 287.733,266.21899 295.847,266.69499 295.847,232.723 C 295.85,188.216 279.119,177.90799 279.119,137.685 z"
         id="path2005_2_"
         style="fill:#fcef3c;stroke:#000000;stroke-width:3;stroke-linecap:round;stroke-linejoin:round" />
      <path
         d="M 328.224,232.71899 C 328.224,228.72499 325.481,225.488 322.092,225.488 L 280.906,225.488 C 277.521,225.488 274.775,228.726 274.775,232.71899 L 274.775,232.71899 C 274.775,236.71299 277.521,239.95099 280.906,239.95099 L 322.092,239.95099 C 325.48,239.94999 328.224,236.71199 328.224,232.71899 L 328.224,232.71899 z"
         id="path2007_2_"
         style="fill:#fcef3c;stroke:#000000;stroke-width:3;stroke-linecap:round;stroke-linejoin:round" />
      <path
         d="M 492.152,234.305 C 492.152,184.185 477.2,165.15999 465.79,154.955 C 442.266,133.899 409.534,146.602 409.534,182.79699 C 409.534,218.99299 447.696,229.66599 447.696,229.66599 C 447.696,229.66599 436.633,214.49 446.908,200.894 C 457.182,187.29599 475.626,203.67599 479.954,221.776 C 484.281,239.87299 485.463,274.214 459.497,263.54 C 459.497,263.54 464.609,284.418 483.101,279.77899 C 491.364,276.99299 492.152,250.08299 492.152,234.305 z"
         id="path2001_3_"
         style="fill:#fcef3c;stroke:#000000;stroke-width:3;stroke-linecap:round;stroke-linejoin:round" />
      <path
         d="M 503.111,234.305 C 503.111,184.185 518.061,165.15999 529.469,154.955 C 552.999,133.899 585.727,146.602 585.727,182.79699 C 585.727,218.99299 547.568,229.66599 547.568,229.66599 C 547.568,229.66599 558.629,214.49 548.355,200.894 C 538.081,187.29599 519.635,203.67599 515.306,221.776 C 510.981,239.87299 509.801,274.214 535.765,263.54 C 535.765,263.54 530.653,284.418 512.161,279.77899 C 503.898,276.99299 503.111,250.08299 503.111,234.305 z"
         id="path2003_3_"
         style="fill:#fcef3c;stroke:#000000;stroke-width:3;stroke-linecap:round;stroke-linejoin:round" />
      <path
         d="M 503.284,232.723 C 503.284,266.69499 511.398,266.21899 511.398,279.14299 C 511.398,293.016 502.472,292.54 497.631,311.75799 C 492.791,292.54 483.865,293.01999 483.865,279.14299 C 483.865,266.21899 491.979,266.69799 491.979,232.723 C 491.979,188.21299 475.25,177.90899 475.25,137.685 C 475.25,110.933 491.388,97.482003 497.63,64.339 C 503.873,97.482003 520.011,110.935 520.011,137.685 C 520.013,177.90799 503.282,188.216 503.284,232.723 z"
         id="path2005_3_"
         style="fill:#fcef3c;stroke:#000000;stroke-width:3;stroke-linecap:round;stroke-linejoin:round" />
      <path
         d="M 470.908,232.71899 C 470.908,236.71199 473.652,239.94999 477.04,239.95099 L 518.227,239.95099 C 521.612,239.95099 524.358,236.71299 524.358,232.71899 L 524.358,232.71899 C 524.358,228.726 521.611,225.488 518.227,225.488 L 477.04,225.488 C 473.652,225.48699 470.908,228.72499 470.908,232.71899 L 470.908,232.71899 z"
         id="path2007_3_"
         style="fill:#fcef3c;stroke:#000000;stroke-width:3;stroke-linecap:round;stroke-linejoin:round" />
    </g>
    <path
       d="M 1.5,367 L 601.5,367"
       id="path6594"
       style="fill:none;stroke:#000000;stroke-width:3;stroke-linejoin:round" />
  </g>
  <g
     inkscape:groupmode="layer"
     id="layer3"
     inkscape:label="Reflet final"
     style="display:inline"
     sodipodi:insensitive="true">
    <path
       style="fill:url(#radialGradient3236);fill-opacity:1"
       d="M 1.5,1.5 L 1.5,460.3679 C 1.5,626.67854 135.81454,761.5 301.49993,761.5 C 467.1854,761.5 601.5,626.67854 601.5,460.3679 L 601.5,1.5 L 1.5,1.5 z "
       id="path2346" />
  </g>
  <g
     inkscape:groupmode="layer"
     id="layer4"
     inkscape:label="Contour final"
     style="display:inline"
     sodipodi:insensitive="true">
    <path
       style="fill:none;fill-opacity:1;stroke:#000000;stroke-width:3;stroke-miterlimit:4;stroke-dasharray:none;stroke-opacity:1"
       d="M 1.5,1.5 L 1.5,460.36794 C 1.5,626.67854 135.81454,761.5 301.49993,761.5 C 467.1854,761.5 601.5,626.67854 601.5,460.36794 L 601.5,1.5 L 1.5,1.5 z "
       id="path3239" />
  </g>
</svg>

<?xml version="1.0" encoding="UTF-8"?>
<svg version="1.0" viewBox="0 0 603 763" xmlns="http://www.w3.org/2000/svg" xmlns:cc="http://creativecommons.org/ns#" xmlns:dc="http://purl.org/dc/elements/1.1/" xmlns:rdf="http://www.w3.org/1999/02/22-rdf-syntax-ns#" xmlns:xlink="http://www.w3.org/1999/xlink">
<metadata>
<rdf:RDF>
<cc:Work rdf:about="">
<dc:format>image/svg+xml</dc:format>
<dc:type rdf:resource="http://purl.org/dc/dcmitype/StillImage"/>
<dc:date>07-AUG-2006</dc:date>
<dc:creator>
<cc:Agent>
<dc:title>Jérôme BLUM (wagner51)</dc:title>
</cc:Agent>
</dc:creator>
<cc:license rdf:resource="http://creativecommons.org/licenses/GPL/2.0/"/>
<dc:coverage/>
<dc:description>Gabarit pour le Projet:Blasons de WIkipédia</dc:description>
<dc:subject>
<rdf:Bag>
<rdf:li>blason suisse modèle gabarit projet blasons</rdf:li>
</rdf:Bag>
</dc:subject>
<dc:language>fr</dc:language>
<dc:title>Gabrit d'un blason suisse</dc:title>
</cc:Work>
<cc:License rdf:about="http://creativecommons.org/licenses/GPL/2.0/">
<cc:permits rdf:resource="http://web.resource.org/cc/Reproduction"/>
<cc:permits rdf:resource="http://web.resource.org/cc/Distribution"/>
<cc:requires rdf:resource="http://web.resource.org/cc/Notice"/>
<cc:permits rdf:resource="http://web.resource.org/cc/DerivativeWorks"/>
<cc:requires rdf:resource="http://web.resource.org/cc/ShareAlike"/>
<cc:requires rdf:resource="http://web.resource.org/cc/SourceCode"/>
</cc:License>
</rdf:RDF>
</metadata>
<defs>
<radialGradient id="a" cx="858.04" cy="579.93" r="300" gradientTransform="matrix(1.215 1.5316e-24 1.4647e-23 1.2667 -839.19 -490.49)" gradientUnits="userSpaceOnUse">
<stop stop-color="#fff" stop-opacity=".31373" offset="0"/>
<stop stop-color="#fff" stop-opacity=".25098" offset=".19"/>
<stop stop-color="#6b6b6b" stop-opacity=".12549" offset=".6"/>
<stop stop-opacity=".12549" offset="1"/>
</radialGradient>
</defs>
<desc>Coat of Arms of Canton of Freiburg (Fribourg)</desc>
<g>
<path d="m1.5 1.5v458.87c0 166.31 134.31 301.13 300 301.13 165.69 0 300-134.82 300-301.13v-458.87h-600z" fill="#e20909"/>
<path d="m1.5 460.37c0 166.31 134.31 301.13 300 301.13 3.8 0 7.578-0.09501 11.345-0.23501l-311.34-311.34v10.448zm455.2-93.368h-134.53l240.9 240.9c17.057-30.404 29.005-64.075 34.676-99.853l-141.05-141.05zm-403.59 0 369.1 369.1c30.014-13.258 57.458-31.293 81.36-53.17l-315.94-315.93h-134.53z" fill="#fcef3c"/>
<path d="m312.84 761.26-311.34-311.34m320.66-82.92 240.9 240.9m34.676-99.852-141.05-141.05m46.878 315.94-315.94-315.94m-134.53 0 369.1 369.1" fill="#fff" stroke="#000" stroke-linecap="round" stroke-linejoin="round" stroke-width="3"/>
<g fill="#fcef3c" stroke="#000" stroke-linecap="round" stroke-linejoin="round" stroke-width="3">
<path d="m119.9 279.78c18.492 4.639 23.605-16.239 23.605-16.239-25.966 10.675-24.785-23.667-20.458-41.764 4.329-18.1 22.772-34.479 33.047-20.882 10.274 13.596-0.789 28.772-0.789 28.772s38.162-10.673 38.162-46.869c0-36.195-32.731-48.898-56.255-27.842-11.411 10.205-26.362 29.23-26.362 79.35 0 15.778 0.788 42.688 9.05 45.474z"/>
<path d="m90.838 279.78c-18.492 4.639-23.604-16.239-23.604-16.239 25.964 10.675 24.784-23.667 20.459-41.764-4.329-18.1-22.774-34.479-33.049-20.882-10.273 13.596 0.787 28.772 0.787 28.772s-38.16-10.673-38.16-46.869c0-36.195 32.729-48.898 56.257-27.842 11.408 10.205 26.359 29.23 26.359 79.35 2e-3 15.778-0.785 42.688-9.049 45.474z"/>
<path d="m82.987 137.68c0-26.75 16.138-40.203 22.381-73.346 6.243 33.143 22.38 46.594 22.38 73.346 0 40.224-16.729 50.528-16.729 95.038 0 33.975 8.115 33.496 8.115 46.42 0 13.877-8.927 13.397-13.767 32.615-4.841-19.218-13.766-18.742-13.766-32.615 0-12.924 8.114-12.448 8.114-46.42 3e-3 -44.507-16.728-54.815-16.728-95.038z"/>
<path d="m132.09 232.72c0-3.994-2.744-7.231-6.132-7.231h-41.186c-3.385 0-6.131 3.238-6.131 7.231 0 3.994 2.746 7.232 6.131 7.232h41.186c3.388-1e-3 6.132-3.239 6.132-7.232z"/>
<path d="m316.03 279.78c18.492 4.639 23.605-16.239 23.605-16.239-25.966 10.675-24.785-23.667-20.458-41.764 4.328-18.1 22.772-34.479 33.047-20.882 10.274 13.596-0.789 28.772-0.789 28.772s38.162-10.673 38.162-46.869c0-36.195-32.731-48.898-56.256-27.842-11.41 10.205-26.362 29.23-26.362 79.35 0 15.778 0.79 42.688 9.051 45.474z"/>
<path d="m286.97 279.78c-18.492 4.639-23.604-16.239-23.604-16.239 25.964 10.675 24.784-23.667 20.458-41.764-4.329-18.1-22.774-34.479-33.048-20.882-10.273 13.596 0.787 28.772 0.787 28.772s-38.16-10.673-38.16-46.869c0-36.195 32.728-48.898 56.257-27.842 11.408 10.205 26.359 29.23 26.359 79.35 2e-3 15.778-0.785 42.688-9.049 45.474z"/>
<path d="m279.12 137.68c0-26.75 16.138-40.203 22.381-73.346 6.243 33.143 22.38 46.594 22.38 73.346 0 40.224-16.729 50.528-16.729 95.038 0 33.975 8.115 33.496 8.115 46.42 0 13.877-8.927 13.397-13.767 32.615-4.841-19.218-13.766-18.742-13.766-32.615 0-12.924 8.114-12.448 8.114-46.42 3e-3 -44.507-16.728-54.815-16.728-95.038z"/>
<path d="m328.22 232.72c0-3.994-2.743-7.231-6.132-7.231h-41.186c-3.385 0-6.131 3.238-6.131 7.231 0 3.994 2.746 7.232 6.131 7.232h41.186c3.388-1e-3 6.132-3.239 6.132-7.232z"/>
<path d="m492.15 234.3c0-50.12-14.952-69.145-26.362-79.35-23.524-21.056-56.256-8.353-56.256 27.842 0 36.196 38.162 46.869 38.162 46.869s-11.063-15.176-0.788-28.772c10.274-13.598 28.718 2.782 33.046 20.882 4.327 18.097 5.509 52.438-20.457 41.764 0 0 5.112 20.878 23.604 16.239 8.263-2.786 9.051-29.696 9.051-45.474z"/>
<path d="m503.11 234.3c0-50.12 14.95-69.145 26.358-79.35 23.53-21.056 56.258-8.353 56.258 27.842 0 36.196-38.159 46.869-38.159 46.869s11.061-15.176 0.787-28.772c-10.274-13.598-28.72 2.782-33.049 20.882-4.325 18.097-5.505 52.438 20.459 41.764 0 0-5.112 20.878-23.604 16.239-8.263-2.786-9.05-29.696-9.05-45.474z"/>
<path d="m503.28 232.72c0 33.972 8.114 33.496 8.114 46.42 0 13.873-8.926 13.397-13.767 32.615-4.84-19.218-13.766-18.738-13.766-32.615 0-12.924 8.114-12.445 8.114-46.42 0-44.51-16.729-54.814-16.729-95.038 0-26.752 16.138-40.203 22.38-73.346 6.243 33.143 22.381 46.596 22.381 73.346 2e-3 40.223-16.729 50.531-16.727 95.038z"/>
<path d="m470.91 232.72c0 3.993 2.744 7.231 6.132 7.232h41.187c3.385 0 6.131-3.238 6.131-7.232 0-3.993-2.747-7.231-6.131-7.231h-41.187c-3.388-0.00101-6.132 3.237-6.132 7.231z"/>
</g>
<path d="m1.5 367h600" fill="none" stroke="#000" stroke-linejoin="round" stroke-width="3"/>
</g>
<g>
<path d="m1.5 1.5v458.87c0 166.31 134.31 301.13 300 301.13 165.69 0 300-134.82 300-301.13v-458.87h-600z" fill="url(#a)"/>
<path d="m1.5 1.5v458.87c0 166.31 134.31 301.13 300 301.13 165.69 0 300-134.82 300-301.13v-458.87h-600z" fill="none" stroke="#000" stroke-width="3"/>
</g>
</svg>
